X: 1
T: LADY GARDNER'S -- REEL
B: Ryan's Mammoth Collection of Fiddle Tunes
R: reel
M: C|
L: 1/8
Z: Contributed 20010523141436 by John Chambers jc:trillian.mit.edu
K: G
uD"^Segno"[|]\
|] G2BG dGBG | FGDA FADA | G2BG dGBG | egfa gedB \
|  G2BG dGBG | FGDA FADA | G2BG dGBG | egfa g2 g2 "^fermat:a"[|] :|
|: gdBd edBd | gdBd gaba | gdBd edBd | effg a2a2 \
|  gabg fgaf | e^deg edBd | cBcd edBd | egfa gedB "^Segno"[|]:|
